src/assets/images/messager_vk.svg

<svg fill="none" height="70" viewBox="0 0 71 70" width="71" xmlns="http://www.w3.org/2000/svg"><path d="m70.957 0h-69.999969v70h69.999969z" fill="#44678d"/><path d="m24.1333 25.3976c1.177 2.9049 2.6669 5.6427 4.6291 8.1003.2682.3295.5832.618.935.8563.5049.3456.9811.2246 1.1865-.3533.2445-.8034.3883-1.634.4282-2.4729.0326-1.6627 0-2.7532-.0941-4.4159-.0576-1.0637-.4358-1.9987-2.0006-2.2809-.4838-.0864-.528-.4858-.2189-.8813.6471-.8275 1.5475-.96 2.5248-1.0099 1.582-.0864 3.1718-.0173 4.7557 0 .6487-.0022 1.2959.0621 1.9315.192.8294.1805 1.273.768 1.4093 1.5724.0728.419.1056.844.0979 1.2691-.0422 1.8163-.1286 3.6307-.1498 5.4451-.0179.7173.0466 1.4343.192 2.1369.2131.96.8717 1.2076 1.536.5107.8467-.9048 1.6209-1.8748 2.3155-2.9011 1.2864-1.8431 2.2463-3.8668 3.0719-5.9519.4282-1.0771.7546-1.3113 1.92-1.3132h6.5279c.3894-.0059.7776.0459 1.152.1536.5913.192.8255.67.6873 1.2825-.3245 1.4361-1.0982 2.6553-1.9296 3.8265-1.3324 1.8816-2.7282 3.7171-4.0914 5.5679-.172.2384-.3291.4872-.4704.745-.5088.9215-.4742 1.438.2688 2.206 1.1846 1.2211 2.4518 2.3635 3.5999 3.6191.8384.9144 1.5958 1.8998 2.2637 2.9453.8352 1.3171.3187 2.5593-1.2403 2.782-.9831.1382-5.7772 0-6.0249 0-1.2411.0142-2.4373-.4635-3.3273-1.3286-1.0137-.9754-1.9315-2.0448-2.9049-3.072-.2912-.3091-.6057-.5954-.9408-.8563-.7948-.6048-1.5763-.4704-1.9468.4627-.3168.8007-.5914 2.9069-.6048 3.0873-.0672.9408-.6643 1.536-1.7184 1.5975-3.0412.1651-5.9864-.1748-8.732-1.6455-2.327-1.246-4.1855-3.0066-5.7944-5.061-2.5555-3.2639-4.5753-6.8504-6.4185-10.5425-.0941-.192-1.9622-4.1625-2.0121-4.3507-.167-.6278-.0115-1.2287.5203-1.4342.3302-.1286 6.4856 0 6.5893 0 .983.0538 1.6531.4685 2.0659 1.488z" fill="#fff"/></svg>

<svg width="71" height="70" viewBox="0 0 71 70" fill="none" xmlns="http://www.w3.org/2000/svg">
<path d="M70.957 0H0.957031V70H70.957V0Z" fill="#44678D"/>
<path d="M24.1333 25.3976C25.3103 28.3025 26.8002 31.0403 28.7624 33.4979C29.0306 33.8274 29.3456 34.1159 29.6974 34.3542C30.2023 34.6998 30.6785 34.5788 30.8839 34.0009C31.1284 33.1975 31.2722 32.3669 31.3121 31.528C31.3447 29.8653 31.3121 28.7748 31.218 27.1121C31.1604 26.0484 30.7822 25.1134 29.2174 24.8312C28.7336 24.7448 28.6894 24.3454 28.9985 23.9499C29.6456 23.1224 30.546 22.9899 31.5233 22.94C33.1053 22.8536 34.6951 22.9227 36.279 22.94C36.9277 22.9378 37.5749 23.0021 38.2105 23.132C39.0399 23.3125 39.4835 23.9 39.6198 24.7044C39.6926 25.1234 39.7254 25.5484 39.7177 25.9735C39.6755 27.7898 39.5891 29.6042 39.5679 31.4186C39.55 32.1359 39.6145 32.8529 39.7599 33.5555C39.973 34.5155 40.6316 34.7631 41.2959 34.0662C42.1426 33.1614 42.9168 32.1914 43.6114 31.1651C44.8978 29.322 45.8577 27.2983 46.6833 25.2132C47.1115 24.1361 47.4379 23.9019 48.6033 23.9C50.7793 23.9 52.9552 23.9 55.1312 23.9C55.5206 23.8941 55.9088 23.9459 56.2832 24.0536C56.8745 24.2456 57.1087 24.7236 56.9705 25.3361C56.646 26.7722 55.8723 27.9914 55.0409 29.1626C53.7085 31.0442 52.3127 32.8797 50.9495 34.7305C50.7775 34.9689 50.6204 35.2177 50.4791 35.4755C49.9703 36.397 50.0049 36.9135 50.7479 37.6815C51.9325 38.9026 53.1997 40.045 54.3478 41.3006C55.1862 42.215 55.9436 43.2004 56.6115 44.2459C57.4467 45.563 56.9302 46.8052 55.3712 47.0279C54.3881 47.1661 49.594 47.0279 49.3463 47.0279C48.1052 47.0421 46.909 46.5644 46.019 45.6993C45.0053 44.7239 44.0875 43.6545 43.1141 42.6273C42.8229 42.3182 42.5084 42.0319 42.1733 41.771C41.3785 41.1662 40.597 41.3006 40.2265 42.2337C39.9097 43.0344 39.6351 45.1406 39.6217 45.321C39.5545 46.2618 38.9574 46.857 37.9033 46.9185C34.8621 47.0836 31.9169 46.7437 29.1713 45.273C26.8443 44.027 24.9858 42.2664 23.3769 40.212C20.8214 36.9481 18.8016 33.3616 16.9584 29.6695C16.8643 29.4775 14.9962 25.507 14.9463 25.3188C14.7793 24.691 14.9348 24.0901 15.4666 23.8846C15.7968 23.756 21.9522 23.8846 22.0559 23.8846C23.0389 23.9384 23.709 24.3531 24.1218 25.3726L24.1333 25.3976Z" fill="white"/>
</svg>
